picto/walk-on-the-left-stand-on-the-right-framed.svg

<svg class="color-immutable" width="30" height="30" viewBox="0 0 30 30" fill="none" xmlns="http://www.w3.org/2000/svg"><path d="M29.9999 0H0V29.9999H29.9999V0Z" fill="#2D327D"/><path d="M25.4999 2.99999C26.3249 2.99999 26.9999 3.67499 26.9999 4.49999V25.4999C26.9999 26.3249 26.3249 26.9999 25.4999 26.9999H4.49999C3.67499 26.9999 2.99999 26.3249 2.99999 25.4999V4.49999C2.99999 3.67499 3.67499 2.99999 4.49999 2.99999H25.4999ZM25.4999 2.62499H4.49999C3.46612 2.62499 2.62499 3.46612 2.62499 4.49999V25.4999C2.62499 26.5338 3.46612 27.3749 4.49999 27.3749H25.4999C26.5338 27.3749 27.3749 26.5338 27.3749 25.4999V4.49999C27.3749 3.46612 26.5338 2.62499 25.4999 2.62499Z" fill="white"/><path d="M22.4074 17.2787C22.4074 17.7184 22.7639 18.075 23.2036 18.075C23.6435 18.075 24 17.7184 24 17.2787V16.4823H22.4074V17.2787Z" fill="white"/><path d="M22.1555 13.9744C22.1052 14.1972 22.0517 14.3917 22.1797 14.6328C22.2882 14.8372 22.5222 15.2776 22.5222 15.2776L23.9658 15.8551L24.2943 14.4942C24.3188 14.3927 24.3199 14.2869 24.2977 14.1849L23.89 12.3068C23.8416 12.084 23.6444 11.9249 23.4164 11.9249H22.9908C22.7627 11.9249 22.5655 12.084 22.5171 12.3068L22.1555 13.9744Z" fill="white"/><path d="M19.5925 17.2787C19.5925 17.7184 19.236 18.075 18.7963 18.075C18.3564 18.075 18 17.7184 18 17.2787V16.4823H19.5925V17.2787Z" fill="white"/><path d="M19.8445 13.9744C19.8949 14.1972 19.9483 14.3917 19.8203 14.6328C19.7118 14.8372 19.4779 15.2776 19.4779 15.2776L18.0342 15.8551L17.7058 14.4942C17.6812 14.3927 17.6801 14.2869 17.7023 14.1849L18.11 12.3068C18.1585 12.084 18.3556 11.9249 18.5836 11.9249H19.0093C19.2373 11.9249 19.4345 12.084 19.4829 12.3068L19.8445 13.9744Z" fill="white"/><path d="M9.65745 23.2787C9.65745 23.7184 10.0139 24.0749 10.4536 24.0749C10.8935 24.0749 11.25 23.7184 11.25 23.2787V22.4823H9.65745V23.2787Z" fill="white"/><path d="M9.40552 19.9744C9.3552 20.1972 9.30172 20.3917 9.42975 20.6328C9.53827 20.8372 9.7722 21.2776 9.7722 21.2776L11.2159 21.8551L11.5443 20.4942C11.5688 20.3927 11.5699 20.2868 11.5477 20.1849L11.14 18.3068C11.0916 18.084 10.8944 17.9249 10.6664 17.9249H10.2408C10.0127 17.9249 9.81555 18.084 9.76717 18.3068L9.40552 19.9744Z" fill="white"/><path d="M7.59253 17.2787C7.59253 17.7184 7.23606 18.075 6.79633 18.075C6.35646 18.075 5.99998 17.7184 5.99998 17.2787V16.4823H7.59253V17.2787Z" fill="white"/><path d="M7.84457 13.9744C7.89489 14.1972 7.94837 14.3917 7.82034 14.6328C7.71182 14.8372 7.47789 15.2776 7.47789 15.2776L6.03422 15.8551L5.7058 14.4942C5.68127 14.3927 5.68015 14.2869 5.70235 14.1849L6.11005 12.3068C6.15835 12.084 6.3556 11.925 6.58352 11.925H7.00914C7.23722 11.925 7.43439 12.084 7.48277 12.3069L7.84457 13.9744Z" fill="white"/><path d="M9.65745 11.2787C9.65745 11.7184 10.0139 12.075 10.4536 12.075C10.8935 12.075 11.25 11.7184 11.25 11.2787V10.4823H9.65745V11.2787Z" fill="white"/><path d="M9.40552 7.97443C9.3552 8.19718 9.30172 8.39173 9.42975 8.63278C9.53827 8.83723 9.7722 9.27763 9.7722 9.27763L11.2159 9.85513L11.5443 8.49426C11.5688 8.39271 11.5699 8.28688 11.5477 8.18488L11.14 6.30681C11.0917 6.08406 10.8945 5.92499 10.6666 5.92499H10.2409C10.0129 5.92499 9.8157 6.08406 9.76732 6.30689L9.40552 7.97443Z" fill="white"/><path d="M14.9999 24.1116C14.8967 24.1116 14.8132 24.0281 14.8132 23.925V6.07498C14.8132 5.97186 14.8967 5.88831 14.9999 5.88831C15.1029 5.88831 15.1865 5.97186 15.1865 6.07498V23.9249C15.1865 24.028 15.1029 24.1116 14.9999 24.1116Z" fill="white"/></svg>

<svg class="color-immutable" width="30" height="30" viewBox="0 0 30 30" fill="none" xmlns="http://www.w3.org/2000/svg"><path d="M30 0H0v30h30V0Z" fill="#2D327D"/><path d="M25.5 3c.825 0 1.5.675 1.5 1.5v21c0 .825-.675 1.5-1.5 1.5h-21c-.825 0-1.5-.675-1.5-1.5v-21C3 3.675 3.675 3 4.5 3h21Zm0-.375h-21A1.877 1.877 0 0 0 2.625 4.5v21c0 1.034.841 1.875 1.875 1.875h21a1.877 1.877 0 0 0 1.875-1.875v-21A1.877 1.877 0 0 0 25.5 2.625Z" fill="#fff"/><path d="M22.407 17.279a.796.796 0 0 0 1.593 0v-.797h-1.593v.797ZM22.155 13.974c-.05.223-.103.418.025.659l.342.645 1.444.577.328-1.36a.692.692 0 0 0 .004-.31l-.408-1.878a.485.485 0 0 0-.474-.382h-.425a.485.485 0 0 0-.474.382l-.361 1.667ZM19.593 17.279a.796.796 0 0 1-1.593 0v-.797h1.593v.797ZM19.845 13.974c.05.223.103.418-.025.659l-.342.645-1.444.577-.328-1.36a.69.69 0 0 1-.004-.31l.408-1.878a.485.485 0 0 1 .474-.382h.425c.228 0 .425.159.474.382l.361 1.667ZM9.657 23.279a.796.796 0 1 0 1.593 0v-.797H9.657v.797ZM9.406 19.974c-.05.223-.104.418.024.659l.342.645 1.444.577.328-1.36a.692.692 0 0 0 .004-.31l-.408-1.878a.485.485 0 0 0-.474-.382h-.425a.485.485 0 0 0-.474.382l-.361 1.667ZM7.593 17.279a.796.796 0 0 1-1.593 0v-.797h1.593v.797ZM7.845 13.974c.05.223.103.418-.025.659l-.342.645-1.444.577-.328-1.36a.691.691 0 0 1-.004-.31l.408-1.878a.485.485 0 0 1 .474-.382h.425c.228 0 .425.159.474.382l.362 1.667ZM9.657 11.279a.796.796 0 1 0 1.593 0v-.797H9.657v.797ZM9.406 7.974c-.05.223-.104.418.024.659l.342.645 1.444.577.328-1.36a.692.692 0 0 0 .004-.31l-.408-1.878a.485.485 0 0 0-.473-.382h-.426a.485.485 0 0 0-.474.382l-.361 1.667ZM15 24.112a.187.187 0 0 1-.187-.187V6.075a.187.187 0 1 1 .373 0v17.85a.187.187 0 0 1-.186.187Z" fill="#fff"/></svg>
